clients/etoro.svg

<svg width="258" height="102" viewBox="0 0 258 102" fill="none" xmlns="http://www.w3.org/2000/svg">
<path d="M257.53 32.36C257.41 32.89 257.31 33.43 257.18 33.95C256.42 36.98 254.6 39.28 252.14 41.11C249.05 43.41 245.52 44.71 241.79 45.52C240.94 45.7 240.08 45.82 239.22 45.96C238.74 46.04 238.7 45.85 238.69 45.46C238.69 43.5 238.76 41.54 238.62 39.58C238.29 34.98 236.59 31 233.26 27.75C232.92 27.42 232.59 27.1 232.25 26.77C232.14 26.66 232.01 26.53 232.07 26.38C232.15 26.19 232.36 26.25 232.52 26.26C233.91 26.36 235.3 26.39 236.68 26.12C238.91 25.69 240.67 24.66 241.36 22.34C241.72 21.14 241.59 19.91 241.39 18.71C240.76 14.93 239.39 11.37 237.98 7.83001C237.18 5.81001 236.28 3.83001 235.38 1.86001C234.94 0.89001 235.03 0.57001 235.92 0.0100098H236.62C237.03 0.26001 237.39 0.56001 237.7 0.94001C240.2 4.02001 242.72 7.09001 245.23 10.16C248.38 14.03 251.56 17.87 254.34 22.02C255.48 23.73 256.61 25.46 257.09 27.5C257.27 28.27 257.39 29.06 257.54 29.84V32.35L257.53 32.36Z" fill="#13C536"/>
<path d="M21.65 0C22.54 0.57 22.63 0.89 22.19 1.86C20.19 6.2 18.32 10.6 16.98 15.2C16.49 16.87 16.11 18.56 16.01 20.31C15.83 23.4 17.62 25.38 20.4 26.03C21.85 26.37 23.32 26.38 24.8 26.29C24.87 26.29 24.93 26.27 25 26.27C25.18 26.27 25.41 26.17 25.5 26.38C25.58 26.57 25.38 26.71 25.26 26.84C25.03 27.08 24.78 27.31 24.54 27.54C22.53 29.43 21.03 31.65 20.07 34.24C19.21 36.56 18.89 38.97 18.88 41.43C18.88 42.8 18.88 44.18 18.88 45.55C18.88 45.85 18.85 46.02 18.46 45.96C14.08 45.38 9.93001 44.13 6.21001 41.66C3.56001 39.9 1.46001 37.65 0.560012 34.53C-0.509989 30.9 -0.00998855 27.42 1.89001 24.15C3.70001 21.05 5.87001 18.19 8.11001 15.4C12.03 10.52 16 5.68 19.95 0.82C20.23 0.48 20.59 0.25 20.94 0H21.64L21.65 0Z" fill="#13C536"/>
<path d="M49.06 55.33C44.38 55.33 39.71 55.33 35.03 55.32C34.58 55.32 34.43 55.43 34.44 55.9C34.47 57.46 34.47 59.01 34.44 60.57C34.42 62.6 35.18 64.28 36.66 65.65C38.49 67.34 40.71 68.27 43.14 68.6C47.11 69.15 50.67 68.08 53.79 65.58C54.37 65.12 54.86 64.56 55.24 63.92C55.42 63.62 55.59 63.61 55.88 63.77C58.8 65.44 61.73 67.09 64.65 68.75C65.13 69.02 65.17 69.21 64.87 69.68C62.87 72.79 60.09 74.99 56.79 76.55C52.64 78.51 48.26 79.42 43.68 79.15C38.61 78.86 33.89 77.43 29.82 74.29C25.53 70.98 23.32 66.58 23.27 61.17C23.21 54.82 23.22 48.48 23.27 42.13C23.31 36.36 25.8 31.82 30.45 28.47C33.82 26.04 37.64 24.73 41.74 24.19C47.03 23.49 52.06 24.36 56.75 26.9C61.25 29.34 64.31 32.96 65.54 38C65.86 39.29 66.02 40.6 66.02 41.93C66.02 45.4 66.02 48.86 66.02 52.33C66.02 54.14 64.9 55.28 63.09 55.31C62.24 55.33 61.38 55.31 60.53 55.31C56.71 55.31 52.89 55.31 49.06 55.31V55.33ZM44.63 46C47.85 46 51.06 46 54.28 46C54.96 46 55.06 45.9 55.06 45.21C55.06 44.32 55.04 43.44 55.06 42.55C55.12 40.21 54.1 38.42 52.23 37.09C50.18 35.62 47.84 34.99 45.34 34.95C42.46 34.9 39.75 35.52 37.35 37.17C35.41 38.5 34.37 40.33 34.44 42.73C34.47 43.65 34.47 44.57 34.44 45.49C34.42 45.92 34.57 46.01 34.98 46.01C38.2 45.99 41.41 46.01 44.63 46.01V46Z" fill="#13C536"/>
<path d="M235.02 51.62C235.02 54.94 235.1 58.25 235 61.56C234.86 66.37 232.76 70.27 229.09 73.34C225.97 75.94 222.33 77.45 218.39 78.25C212.65 79.43 207.09 78.74 201.76 76.36C197.98 74.68 194.86 72.2 192.81 68.53C191.51 66.2 190.89 63.68 190.87 61.03C190.84 54.73 190.8 48.44 190.87 42.14C190.94 36.37 193.65 31.99 198.33 28.76C201.73 26.42 205.54 25.11 209.61 24.59C216.1 23.75 222.11 25.12 227.55 28.74C231.3 31.24 233.82 34.67 234.73 39.17C234.97 40.34 235.04 41.52 235.05 42.71C235.05 45.67 235.05 48.64 235.05 51.6C235.04 51.6 235.03 51.6 235.01 51.6L235.02 51.62ZM201.91 51.14C201.91 53.9 201.95 56.67 201.9 59.43C201.86 61.57 202.69 63.29 204.32 64.59C207.46 67.09 211.07 68.08 215.05 67.48C217.59 67.1 219.91 66.12 221.85 64.37C223.23 63.12 224.03 61.6 224.03 59.7C224.03 54.01 224.03 48.31 224.03 42.62C224.03 41.03 223.46 39.69 222.36 38.56C221.69 37.87 220.91 37.32 220.06 36.88C216.99 35.31 213.75 34.8 210.36 35.4C208.2 35.78 206.15 36.48 204.38 37.84C202.74 39.11 201.87 40.73 201.91 42.85C201.96 45.61 201.92 48.38 201.92 51.14H201.91Z" fill="#13C536"/>
<path d="M157.87 51.6C157.87 54.9 157.95 58.2 157.85 61.49C157.7 66.66 155.36 70.75 151.28 73.86C147.7 76.58 143.6 78.02 139.17 78.59C133.75 79.28 128.59 78.35 123.71 75.95C119.7 73.97 116.57 71.07 114.84 66.85C114.09 65 113.72 63.06 113.71 61.07C113.69 54.76 113.64 48.44 113.72 42.13C113.79 36.4 116.49 32.04 121.12 28.82C124.53 26.45 128.35 25.15 132.44 24.61C138.6 23.8 144.34 25.03 149.62 28.25C153.48 30.6 156.21 33.88 157.38 38.33C157.76 39.76 157.88 41.23 157.88 42.71C157.88 45.67 157.88 48.64 157.88 51.6H157.86H157.87ZM124.75 51.17C124.75 53.98 124.77 56.8 124.75 59.61C124.73 61.37 125.37 62.84 126.59 64.07C127.9 65.4 129.5 66.26 131.24 66.85C135.86 68.42 140.16 67.72 144.09 64.88C145.78 63.66 146.86 62.01 146.86 59.84C146.87 54.06 146.86 48.29 146.86 42.51C146.86 41.19 146.42 40.02 145.58 39C144.79 38.04 143.8 37.33 142.69 36.79C139.67 35.3 136.49 34.82 133.17 35.41C131.18 35.76 129.28 36.39 127.6 37.57C125.71 38.89 124.68 40.61 124.74 42.99C124.81 45.72 124.76 48.45 124.76 51.18L124.75 51.17Z" fill="#13C536"/>
<path d="M84.39 57.3301C84.39 50.4001 84.39 43.4601 84.4 36.5301C84.4 36.0401 84.26 35.9701 83.81 36.0001C79.67 36.2801 75.59 36.8901 71.57 37.9001C71.03 38.0401 71.09 37.7001 71.05 37.4201C70.7 35.4101 70.1 33.4901 69.01 31.7501C68.42 30.8101 67.7 29.9701 66.86 29.2401C66.68 29.0801 66.51 28.9301 66.58 28.6501C66.65 28.3901 66.87 28.3401 67.07 28.2801C71.89 26.9801 76.76 25.9401 81.75 25.5101C86.54 25.1001 91.33 25.0801 96.12 25.3601C101.24 25.6601 106.25 26.5801 111.2 27.8901C111.73 28.0301 112.27 28.1601 112.8 28.3301C113.29 28.4801 113.39 28.8701 113 29.1801C110.3 31.3301 108.99 34.2601 108.28 37.5201C108.19 37.9101 108.09 37.9901 107.7 37.9001C103.81 36.9201 99.86 36.3001 95.86 36.0101C95.35 35.9701 95.42 36.2301 95.42 36.5401C95.42 47.2101 95.42 57.8801 95.42 68.5401C95.42 71.7401 95.42 74.9401 95.42 78.1401C95.42 78.5901 95.31 78.7401 94.83 78.7401C91.56 78.7201 88.29 78.7201 85.02 78.7401C84.52 78.7401 84.37 78.6201 84.37 78.1001C84.39 71.1801 84.38 64.2701 84.38 57.3501L84.39 57.3301Z" fill="#13C536"/>
<path d="M164.69 59.8899C164.69 54.2999 164.74 48.6999 164.68 43.1099C164.6 36.3699 167.67 31.4699 173.31 28.0499C176.98 25.8199 181.02 24.7199 185.3 24.3999C187.24 24.2499 189.15 24.4399 191.06 24.6899C191.31 24.7199 191.58 24.7299 191.66 25.0399C191.74 25.3299 191.63 25.5799 191.43 25.7699C191.06 26.1099 190.67 26.4299 190.29 26.7599C187.65 29.0399 185.53 31.6999 184.5 35.0999C184.41 35.3899 184.21 35.4199 183.98 35.4799C181.88 35.9799 179.89 36.7499 178.17 38.0899C176.57 39.3299 175.72 40.8899 175.72 42.9999C175.76 54.7099 175.74 66.4099 175.74 78.1199C175.74 78.5999 175.503 78.8399 175.03 78.8399C171.79 78.8399 168.56 78.8299 165.32 78.8499C164.81 78.8499 164.67 78.6999 164.67 78.1899C164.69 72.0899 164.68 65.9999 164.68 59.8999L164.69 59.8899Z" fill="#13C536"/>
</svg>

<?xml version="1.0" encoding="UTF-8"?><svg id="Layer_2" xmlns="http://www.w3.org/2000/svg" viewBox="0 0 257.53 79.2"><defs><style>.cls-1{fill:#13c536;stroke-width:0px;}</style></defs><g id="Layer_1-2"><path class="cls-1" d="m257.53,32.36c-.12.53-.22,1.07-.35,1.59-.76,3.03-2.58,5.33-5.04,7.16-3.09,2.3-6.62,3.6-10.35,4.41-.85.18-1.71.3-2.57.44-.48.08-.52-.11-.53-.5,0-1.96.07-3.92-.07-5.88-.33-4.6-2.03-8.58-5.36-11.83-.34-.33-.67-.65-1.01-.98-.11-.11-.24-.24-.18-.39.08-.19.29-.13.45-.12,1.39.1,2.78.13,4.16-.14,2.23-.43,3.99-1.46,4.68-3.78.36-1.2.23-2.43.03-3.63-.63-3.78-2-7.34-3.41-10.88-.8-2.02-1.7-4-2.6-5.97-.44-.97-.35-1.29.54-1.85h.7c.41.25.77.55,1.08.93,2.5,3.08,5.02,6.15,7.53,9.22,3.15,3.87,6.33,7.71,9.11,11.86,1.14,1.71,2.27,3.44,2.75,5.48.18.77.3,1.56.45,2.34v2.51Z"/><path class="cls-1" d="m21.65,0c.89.57.98.89.54,1.86-2,4.34-3.87,8.74-5.21,13.34-.49,1.67-.87,3.36-.97,5.11-.18,3.09,1.61,5.07,4.39,5.72,1.45.34,2.92.35,4.4.26.07,0,.13-.02.2-.02.18,0,.41-.1.5.11.08.19-.12.33-.24.46-.23.24-.48.47-.72.7-2.01,1.89-3.51,4.11-4.47,6.7-.86,2.32-1.18,4.73-1.19,7.19,0,1.37,0,2.75,0,4.12,0,.3-.03.47-.42.41-4.38-.58-8.53-1.83-12.25-4.3-2.65-1.76-4.75-4.01-5.65-7.13C-.51,30.9-.01,27.42,1.89,24.15c1.81-3.1,3.98-5.96,6.22-8.75,3.92-4.88,7.89-9.72,11.84-14.58.28-.34.64-.57.99-.82h.7Z"/><path class="cls-1" d="m49.06,55.33c-4.68,0-9.35,0-14.03-.01-.45,0-.6.11-.59.58.03,1.56.03,3.11,0,4.67-.02,2.03.74,3.71,2.22,5.08,1.83,1.69,4.05,2.62,6.48,2.95,3.97.55,7.53-.52,10.65-3.02.58-.46,1.07-1.02,1.45-1.66.18-.3.35-.31.64-.15,2.92,1.67,5.85,3.32,8.77,4.98.48.27.52.46.22.93-2,3.11-4.78,5.31-8.08,6.87-4.15,1.96-8.53,2.87-13.11,2.6-5.07-.29-9.79-1.72-13.86-4.86-4.29-3.31-6.5-7.71-6.55-13.12-.06-6.35-.05-12.69,0-19.04.04-5.77,2.53-10.31,7.18-13.66,3.37-2.43,7.19-3.74,11.29-4.28,5.29-.7,10.32.17,15.01,2.71,4.5,2.44,7.56,6.06,8.79,11.1.32,1.29.48,2.6.48,3.93,0,3.47,0,6.93,0,10.4,0,1.81-1.12,2.95-2.93,2.98-.85.02-1.71,0-2.56,0-3.82,0-7.64,0-11.47,0Zm-4.43-9.33c3.22,0,6.43,0,9.65,0,.68,0,.78-.1.78-.79,0-.89-.02-1.77,0-2.66.06-2.34-.96-4.13-2.83-5.46-2.05-1.47-4.39-2.1-6.89-2.14-2.88-.05-5.59.57-7.99,2.22-1.94,1.33-2.98,3.16-2.91,5.56.03.92.03,1.84,0,2.76-.02.43.13.52.54.52,3.22-.02,6.43,0,9.65,0Z"/><path class="cls-1" d="m235.02,51.62c0,3.32.08,6.63-.02,9.94-.14,4.81-2.24,8.71-5.91,11.78-3.12,2.6-6.76,4.11-10.7,4.91-5.74,1.18-11.3.49-16.63-1.89-3.78-1.68-6.9-4.16-8.95-7.83-1.3-2.33-1.92-4.85-1.94-7.5-.03-6.3-.07-12.59,0-18.89.07-5.77,2.78-10.15,7.46-13.38,3.4-2.34,7.21-3.65,11.28-4.17,6.49-.84,12.5.53,17.94,4.15,3.75,2.5,6.27,5.93,7.18,10.43.24,1.17.31,2.35.32,3.54,0,2.96,0,5.93,0,8.89-.01,0-.02,0-.04,0Zm-33.11-.48c0,2.76.04,5.53-.01,8.29-.04,2.14.79,3.86,2.42,5.16,3.14,2.5,6.75,3.49,10.73,2.89,2.54-.38,4.86-1.36,6.8-3.11,1.38-1.25,2.18-2.77,2.18-4.67,0-5.69,0-11.39,0-17.08,0-1.59-.57-2.93-1.67-4.06-.67-.69-1.45-1.24-2.3-1.68-3.07-1.57-6.31-2.08-9.7-1.48-2.16.38-4.21,1.08-5.98,2.44-1.64,1.27-2.51,2.89-2.47,5.01.05,2.76.01,5.53.01,8.29Z"/><path class="cls-1" d="m157.87,51.6c0,3.3.08,6.6-.02,9.89-.15,5.17-2.49,9.26-6.57,12.37-3.58,2.72-7.68,4.16-12.11,4.73-5.42.69-10.58-.24-15.46-2.64-4.01-1.98-7.14-4.88-8.87-9.1-.75-1.85-1.12-3.79-1.13-5.78-.02-6.31-.07-12.63.01-18.94.07-5.73,2.77-10.09,7.4-13.31,3.41-2.37,7.23-3.67,11.32-4.21,6.16-.81,11.9.42,17.18,3.64,3.86,2.35,6.59,5.63,7.76,10.08.38,1.43.5,2.9.5,4.38,0,2.96,0,5.93,0,8.89,0,0-.02,0-.02,0Zm-33.12-.43c0,2.81.02,5.63,0,8.44-.02,1.76.62,3.23,1.84,4.46,1.31,1.33,2.91,2.19,4.65,2.78,4.62,1.57,8.92.87,12.85-1.97,1.69-1.22,2.77-2.87,2.77-5.04.01-5.78,0-11.55,0-17.33,0-1.32-.44-2.49-1.28-3.51-.79-.96-1.78-1.67-2.89-2.21-3.02-1.49-6.2-1.97-9.52-1.38-1.99.35-3.89.98-5.57,2.16-1.89,1.32-2.92,3.04-2.86,5.42.07,2.73.02,5.46.02,8.19Z"/><path class="cls-1" d="m84.39,57.33c0-6.93,0-13.87.01-20.8,0-.49-.14-.56-.59-.53-4.14.28-8.22.89-12.24,1.9-.54.14-.48-.2-.52-.48-.35-2.01-.95-3.93-2.04-5.67-.59-.94-1.31-1.78-2.15-2.51-.18-.16-.35-.31-.28-.59.07-.26.29-.31.49-.37,4.82-1.3,9.69-2.34,14.68-2.77,4.79-.41,9.58-.43,14.37-.15,5.12.3,10.13,1.22,15.08,2.53.53.14,1.07.27,1.6.44.49.15.59.54.2.85-2.7,2.15-4.01,5.08-4.72,8.34-.09.39-.19.47-.58.38-3.89-.98-7.84-1.6-11.84-1.89-.51-.04-.44.22-.44.53,0,10.67,0,21.34,0,32,0,3.2,0,6.4,0,9.6,0,.45-.11.6-.59.6-3.27-.02-6.54-.02-9.81,0-.5,0-.65-.12-.65-.64.02-6.92.01-13.83.01-20.75Z"/><path class="cls-1" d="m164.69,59.89c0-5.59.05-11.19-.01-16.78-.08-6.74,2.99-11.64,8.63-15.06,3.67-2.23,7.71-3.33,11.99-3.65,1.94-.15,3.85.04,5.76.29.25.03.52.04.6.35.08.29-.03.54-.23.73-.37.34-.76.66-1.14.99-2.64,2.28-4.76,4.94-5.79,8.34-.09.29-.29.32-.52.38-2.1.5-4.09,1.27-5.81,2.61-1.6,1.24-2.45,2.8-2.45,4.91.04,11.71.02,23.41.02,35.12q0,.72-.71.72c-3.24,0-6.47-.01-9.71.01-.51,0-.65-.15-.65-.66.02-6.1.01-12.19.01-18.29Z"/></g></svg>
